client/public/assets/icons/utility/picklist_type.svg

<?xml version="1.0"?><svg xmlns="http://www.w3.org/2000/svg" width="52" height="52" viewBox="0 0 52 52"><path fill="#fff" d="m48.3 14.9h-31.9c-0.9 0-1.6-0.7-1.6-1.6v-3.2c0-0.9 0.7-1.6 1.6-1.6h31.9c0.9 0 1.6 0.7 1.6 1.6v3.2c0 0.9-0.7 1.6-1.6 1.6z m0 14.3h-31.9c-0.9 0-1.6-0.7-1.6-1.6v-3.2c0-0.9 0.7-1.6 1.6-1.6h31.9c0.9 0 1.6 0.7 1.6 1.6v3.2c0 0.9-0.7 1.6-1.6 1.6z m-41.4 0h-3.2c-0.9 0-1.6-0.7-1.6-1.6v-3.2c0-0.9 0.7-1.6 1.6-1.6h3.2c0.9 0 1.6 0.7 1.6 1.6v3.2c0 0.9-0.7 1.6-1.6 1.6z m0-14.3h-3.2c-0.9 0-1.6-0.7-1.6-1.6v-3.2c0-0.9 0.7-1.6 1.6-1.6h3.2c0.9 0 1.6 0.7 1.6 1.6v3.2c0 0.9-0.7 1.6-1.6 1.6z m0 28.6h-3.2c-0.9 0-1.6-0.7-1.6-1.6v-3.2c0-0.9 0.7-1.6 1.6-1.6h3.2c0.9 0 1.6 0.7 1.6 1.6v3.2c0 0.9-0.7 1.6-1.6 1.6z m41.4 0h-31.9c-0.9 0-1.6-0.7-1.6-1.6v-3.2c0-0.9 0.7-1.6 1.6-1.6h31.9c0.9 0 1.6 0.7 1.6 1.6v3.2c0 0.9-0.7 1.6-1.6 1.6z"></path></svg>

<?xml version="1.0" encoding="utf-8"?>
<!-- Generator: Adobe Illustrator 21.1.0, SVG Export Plug-In . SVG Version: 6.00 Build 0)  -->
<svg version="1.1" id="Layer_1" xmlns="http://www.w3.org/2000/svg" xmlns:xlink="http://www.w3.org/1999/xlink" x="0px" y="0px"
	 width="52px" height="52px" viewBox="0 0 52 52" enable-background="new 0 0 52 52" xml:space="preserve">
<path fill="#FFFFFF" d="M48.3,14.9H16.4c-0.9,0-1.6-0.7-1.6-1.6v-3.2c0-0.9,0.7-1.6,1.6-1.6h31.9c0.9,0,1.6,0.7,1.6,1.6v3.2
	C49.9,14.2,49.2,14.9,48.3,14.9z"/>
<path fill="#FFFFFF" d="M48.3,29.2H16.4c-0.9,0-1.6-0.7-1.6-1.6v-3.2c0-0.9,0.7-1.6,1.6-1.6h31.9c0.9,0,1.6,0.7,1.6,1.6v3.2
	C49.9,28.5,49.2,29.2,48.3,29.2z"/>
<path fill="#FFFFFF" d="M6.9,29.2H3.7c-0.9,0-1.6-0.7-1.6-1.6v-3.2c0-0.9,0.7-1.6,1.6-1.6h3.2c0.9,0,1.6,0.7,1.6,1.6v3.2
	C8.5,28.5,7.8,29.2,6.9,29.2z"/>
<path fill="#FFFFFF" d="M6.9,14.9H3.7c-0.9,0-1.6-0.7-1.6-1.6v-3.2c0-0.9,0.7-1.6,1.6-1.6h3.2c0.9,0,1.6,0.7,1.6,1.6v3.2
	C8.5,14.2,7.8,14.9,6.9,14.9z"/>
<path fill="#FFFFFF" d="M6.9,43.5H3.7c-0.9,0-1.6-0.7-1.6-1.6v-3.2c0-0.9,0.7-1.6,1.6-1.6h3.2c0.9,0,1.6,0.7,1.6,1.6v3.2
	C8.5,42.8,7.8,43.5,6.9,43.5z"/>
<path fill="#FFFFFF" d="M48.3,43.5H16.4c-0.9,0-1.6-0.7-1.6-1.6v-3.2c0-0.9,0.7-1.6,1.6-1.6h31.9c0.9,0,1.6,0.7,1.6,1.6v3.2
	C49.9,42.8,49.2,43.5,48.3,43.5z"/>
</svg>
